!!!!SEGMENT: pl-wtm--a-31-365-79_lawina-swietochowski-jerzy--morze-czasami-w-zyciu-cos-sie-wydarzy.krn
!!!cenid: 19xx:25
!!!COM: Lawina-Świętochowski, Jerzy
!!!COM-rismID: pe50054700
!!!CDT: 1906-1946
!!!CNT: Polish
!!!OTL: Morze/Czasami w życiu coś się wydarzy
!!!PDT:
!!!AGN: Secular
!!!YEC: Copyright 2022 Narodowy Instytut Fryderyka Chopina (https://polishscores.org)
!!!YEM: License CC-BY-4.0 (https://creativecommons.org/licenses/by/4.0)
!!!SMS-siglum: PL-Wtm
!!!SMS-shelfmark: A.31.365/79
!!!SMS-variant:
!!!SMS-altvar:
!!!SMS-shelfwork: W
!!!NIFC-rismSourceID: 1001225406
!!!NIFC-rismChildID: 1001225406
!!!NIFC-islandoraID: pl-wtm:95698
!!!URL-pdf-islandora: https://repozytorium.nifc.pl/islandora/object/pl-wtm%3A95698/datastream/PDF/view
!!!URL-scan: https://polish.musicsources.pl/pl/lokalizacje/galeria/druki-muzyczne/20725/2 @EN{Scan on Polish Music Sources Website} @PL{Skany w portalu Dziedzictwo Muzyki Polskiej w otwartym dostępie}
!!!IIIF:
!!!ONB-nifc:
!!!AIN: 2 piano 1 vox
!!!key: b-
**kern	**kern	**dynam	**kern	**text	**text
*part3	*part2	*part2	*part1	*part1	*part1
*staff3	*staff2	*	*staff1	*staff1	*staff1
*I"[Piano]	*I"[Piano]	*	*I"[Voce]	*	*
*I'[pf]	*I'[pf]	*	*I'[V]	*	*
*ICklav	*ICklav	*	*ICvox	*	*
*Ipiano	*Ipiano	*	*Ivox	*	*
*>[A,A1,A,A2]	*>[A,A1,A,A2]	*>[A,A1,A,A2]	*>[A,A1,A,A2]	*>[A,A1,A,A2]	*>[A,A1,A,A2]
*>A	*>A	*>A	*>A	*>A	*>A
*clefF4	*clefG2	*	*clefG2	*	*
*k[b-e-a-d-g-]	*k[b-e-a-d-g-]	*	*k[b-e-a-d-g-]	*	*
*b-:	*b-:	*	*b-:	*	*
*M2/4	*M2/4	*	*M2/4	*	*
=1	=1	=1	=1	=1	=1
!	!	!	!LO:TX:a:B:i:t=TANGO	!	!
(8.BBB-/L	2r	p	2r	.	.
16FF/Jk	.	.	.	.	.
8D-\L	.	.	.	.	.
8FF\J)	.	.	.	.	.
=2	=2	=2	=2	=2	=2
(8.BBB-/L	2r	.	2r	.	.
16FF/Jk	.	.	.	.	.
8D-\L	.	.	.	.	.
8FF\J)	.	.	.	.	.
=3!|:	=3!|:	=3!|:	=3!|:	=3!|:	=3!|:
(8.BBB-/L 8.BB-	16f\KL 16ff	.	16f/	Cza-	Czy
.	8f\ 8ff	.	8f/	-sa-	wiel-
16F/Jk	16f\Jk 16ff	.	16f/	-mi	-ki
8B-\L 8d-	8f\L 8ff	.	8f/	w ży-	smu-
8FF\J)	8f\J 8ff	.	8f/	-ciu	-tek,
=4	=4	=4	=4	=4	=4
(8.CC/L	8.en\L 8.b- 8.een	.	16en/	coś	czy
.	.	.	8e/	się	wiel-
16GGn/Jk	16e\Jk 16b- 16ee	.	16e/	wy-	-kie
8En\L	4e\ 4b- 4ee	.	8e/	-da-	szczę-
8GG\J)	.	.	8e/	-rzy,	-ście
!!LO:LB:g=original	!	!	!	!	!
=5	=5	=5	=5	=5	=5
!	!LO:TUP:a:problem:klamra łukowa	!	!	!	!
4GG-X:\ 4D-: 4B-:	12e-X\L 12g- 12b- 12ee-X	.	12e-X/	dłoń	o-
.	12f\ 12ff	.	12f/	roz-	-no
.	12e-\J 12ee-	.	12e-/	-pa-	zro-
4FF:\ 4C: 4An:	8f\L 8an 8ff	.	8f/	-lo-	-zu-
.	8e-\J 8ee-	.	8e-/	-na	-mie
=6	=6	=6	=6	=6	=6
(8.BBB-/L	2d-/ 2f 2b- 2dd-	.	2d-/	drży.	mnie.
16FF/Jk	.	.	.	.	.
8F\L	.	.	.	.	.
8FF\J)	.	.	.	.	.
=7	=7	=7	=7	=7	=7
(8.BBB-/L 8.BB-	16b-\KL 16ddn 16ff 16bb-	.	16b-\	Ser-	Wszys-
.	8b-\ 8bb-	.	8b-\	-ce	-tko
16F/Jk	16b-\Jk 16bb-	.	16b-\	wy-	za-
8B-\L 8dn	8b-\L 8bb-	.	8b-\	-ru-	-po-
8FF\J)	8b-\J 8bb-	.	8b-\	-sza	-mnę
=8	=8	=8	=8	=8	=8
(8.BBB-/L 8.BB-	8.a-\L 8.ddn 8.aa-	.	16a-/	w kra-	w je-
.	.	.	8a-/	-i-	-go
16F/Jk	16a-\Jk 16dd 16aa-	.	16a-/	-nę	ob-
8B-\L 8dn	[4a-\ [<4dd [4aa-	.	8a-/	ma-	-ję-
8FF\J)	.	.	8a-/	-rzeń	-ciach
=9	=9	=9	=9	=9	=9
2BBB-:/ 2FF: 2Dn:	16a-\LL] 16dd] 16aa-]	<	16r	.	.
.	16f\ 16ff	.	16f/	cu-	ni-
.	16g-\ 16gg-	.	16g-/	-dow-	-by
.	16a-\JJ 16aa-	.	16a-/	-ne	w cu-
.	8b-\L 8bb-	.	8b-\	ro-	-dow-
.	8b-\J 8bb-	[[	8b-\	-i	-nym
!!LO:LB:g=original	!	!	!	!	!
=10	=10	=10	=10	=10	=10
*^	*	*	*	*	*
!	!	!LO:TX:b:i:t=con foza	!	!	!	!
8.r	8.EE-\L 8.E-	2b-\ 2ee- 2gg- 2bb-	.	2b-\	sny.	śnie
(16f/	16G-\Jk 16B-	.	.	.	.	.
8e-/L	4G-\ 4B-	.	.	.	.	.
8d-/J	.	.	.	.	.	.
=11	=11	=11	=11	=11	=11	=11
2c/)	2G-\ 2B-	16r	f	16r	.	.
.	.	16ee-\LL 16gg- 16bb- 16eee-	.	16ee-\	Naj-	I
.	.	16dd-X\ 16gg- 16bb- 16ddd-X	.	16dd-\	-le-	czy
.	.	16cc\JJ 16ee- 16gg- 16ccc	.	16cc\	-piej	to
.	.	8ee-\L 8gg- 8bb- 8eee-	.	8ee-\	w ta-	ból
.	.	8cc\J 8ee- 8gg- 8ccc	.	8cc\	-kich	roz-
=12	=12	=12	=12	=12	=12	=12
8.r	8.CC\L	4ee-\ 4gg- 4bb- 4eee-	.	4ee-\	chwi-	-sta-
(16e-/	16E-\Jk 16G-	.	.	.	.	.
*	*	*cue	*	*	*	*
8d-/L	4E-\ 4G-	4ee-\ 4gg- 4bb- 4eee-	.	4ee-\	-lach	-nia
8c/J	.	.	.	.	.	.
*	*	*Xcue	*	*	*	*
=13	=13	=13	=13	=13	=13	=13
8B-/L	2D-\ 2F	16r	.	16r	.	.
.	.	16dd-\LL 16ff 16bb- 16ddd-	.	16dd-\	nad	czy
8An/J	.	16cc\ 16ccc	.	16cc\	brze-	też
.	.	16b-\JJ 16bb-	.	16b-\	-giem	mi-
4A-X/)	.	8dd-\L 8ff 8bb- 8ddd-	.	8dd-\	mo-	-łoś-
.	.	8b-\J 8bb-	.	8b-\	-rza	-ci
=14	=14	=14	=14	=14	=14	=14
8.r	2EEE-/ 2EE-	[2dd-\ [2ff-X [2aa- [2ddd-	.	2dd-\	iść	cud...
(16A-/	.	.	.	.	.	.
8G-/L	.	.	.	.	.	.
8F-X/J	.	.	.	.	.	.
*v	*v	*	*	*	*	*
!!LO:PB:g=original	!	!	!	!	!
=15	=15	=15	=15	=15	=15
8E-\)	16dd-\] 16ff-] 16aa-] 16ddd-]	.	16r	.	.
.	(>16b-/LL	.	16b-\	nie-	Wszys-
8r	16a-/	.	16a-/	-chaj	-tko
.	16g-/JJ	.	16g-/	z fa-	nie
4En\	8b-/L	.	8b-\	-la-	waż-
.	8g-/J)	.	8g-/	-mi	-ne
=16	=16	=16	=16	=16	=16
*	*^	*	*	*	*
4F\	6f/	4B-\ 4d-	.	12f/	bie-	nad
.	.	.	.	12f/	-gnie	brze-
.	12f/	.	.	12f/	zmę-	-giem
4FF/ 4F	4f/	8B-\L 8c	.	8f/	-czo-	wiel-
.	.	8An\J	.	8f/	-na	-kich
*	*v	*v	*	*	*	*
=17	=17	=17	=17	=17	=17
(8.BBB-/L	[2B-/ [2dn [2f	.	[2f/	myśl.	wód.
16FF/Jk	.	.	.	.	.
8Dn\L	.	.	.	.	.
8FF\J)	.	.	.	.	.
=18	=18	=18	=18	=18	=18
(8.BBB-/L	2B-/] 2d] 2f]	.	2f/]	.	.
16FF/Jk	.	.	.	.	.
8Dn\L	.	.	.	.	.
8FF\J)	.	.	.	.	.
*kcancel	*kcancel	*	*kcancel	*	*
=19||	=19||	=19||	=19||	=19||	=19||
*k[b-e-]	*k[b-e-]	*	*k[b-e-]	*	*
!!LO:TX:a:t=P:problem: kolejność: b- e- an dn gn	!	!	!	!	!
!	!	!	!LO:TX:a:B:t=Refrain	!	!
(8.BBB-/L 8.BB-	4d/ 4f	.	4f/	Mo-	.
16F/Jk	.	.	.	.	.
8B-\L 8d	[4dd\ [4ff	.	[4ff\	-rze,	.
8FF\J)	.	.	.	.	.
!!LO:LB:g=original	!	!	!	!	!
=20	=20	=20	=20	=20	=20
(8.BBB-/L	16dd\LL] 16ff]	.	16ff\]	.	.
.	(16dd\ 16ff	.	16ff\	szu-	.
.	16ee-\ 16gg	.	16gg\	-mią-	.
16F/Jk	16dd\JJ 16ff	.	16ff\	-ce,	.
8B-\L 8d	16ee-\LL 16gg	.	16gg\	ko-	.
.	16dd\ 16ff	.	16ff\	-ły-	.
8FF\J)	16cc\ 16ee-	.	16ee-\	-szą-	.
.	16b-\JJ) 16dd	.	16dd\	-ce	.
=21	=21	=21	=21	=21	=21
8.BBB-/L 8.BB-	8.dd\L 8.ff	.	8.ff\	szu-	.
16F/Jk	16dd\Jk 16ff	.	16ff\	-mem	.
8B-\L 8d	[4b-\ [4dd	.	[4dd\	fal	.
8FF\J	.	.	.	.	.
=22	=22	=22	=22	=22	=22
*	*^	*	*	*	*
2BBB-/ 2BB-	8.b-/L] 8.dd]	4ryy	.	2dd\]	.	.
.	16b-/Jk 16dd	.	.	.	.	.
.	4dd/	8a\L	.	.	.	.
.	.	8a-X\J	.	.	.	.
=23	=23	=23	=23	=23	=23	=23
!	!LO:TUP:a:problem:klamra łukowa	!	!	!	!	!
4EE-:\ 4BB-: 4G:	12dd/L	4g\	.	12dd\	cu-	.
.	12cc/	.	.	12cc\	-dne	.
.	12b-/J	.	.	12b-\	jak	.
4EE-:\ 4BB-: 4G-X:	4dd/	8g-X\L	.	8g-X/	baj-	.
.	.	8g-\J	.	8g-/	-ka	.
!!LO:LB:g=original	!	!	!	!	!	!
=24	=24	=24	=24	=24	=24	=24
!	!	!LO:TUP:b:problem:klamra łukowa	!	!	!	!
4FF/ 4F	4ee-/	12f\L	.	12f/	w bla-	.
.	.	12f\	.	12f/	-skach	.
.	.	12f\J	.	12f/	wie-	.
4FF/ 4F	8e-/L	4A\	.	8e-/	-czor-	.
.	8c/J	.	.	8c/	-nej	.
*	*v	*v	*	*	*	*
=25	=25	=25	=25	=25	=25
8.BBB-/L	4B-/ 4d	<	4d/	zo-	.
16BB-/Jk	.	.	.	.	.
8BBBn/L	4A-X/ 4d 4f	[[	[4f/	-rzy,	.
8BBn/J	.	.	.	.	.
=26	=26	=26	=26	=26	=26
4CC/ 4C	8.An/L 8.e- 8.f	.	2f/]	.	.
.	16gn/Jk 16a 16ee-	f >	.	.	.
4FFF/ 4FF	8f/L 8a 8dd	.	.	.	.
.	8e-/J 8a 8cc	]]	.	.	.
=27	=27	=27	=27	=27	=27
(8.BBB-/L 8.BB-	4d/ 4f	.	4f/	Mo-	.
16F/Jk	.	.	.	.	.
8B-\L 8d	[4dd\ [4ff	.	[4ff\	-rze,	.
8FF\J)	.	.	.	.	.
=28	=28	=28	=28	=28	=28
(8.BBB-/L	16dd\LL] 16ff]	.	16ff\]	.	.
.	(16dd\ 16ff	.	16ff\	ty	.
.	16ee-\ 16gg	.	16gg\	bu-	.
16F/Jk	16dd\JJ 16ff	.	16ff\	-dzisz	.
8B-\L 8d	16ee-\LL 16gg	.	16gg\	w ser-	.
.	16dd\ 16ff	.	16ff\	-cu	.
8FF\J)	16cc\ 16ee-	.	16ee-\	ja-	.
.	16b-\JJ) 16dd	.	16dd\	-kiś	.
!!LO:LB:g=original	!	!	!	!	!
=29	=29	=29	=29	=29	=29
8.AAA/L 8.AA	8.a\L 8.dd 8.ff	.	8.ff\	dziw-	.
16AA/Jk	16a\Jk 16dd 16ff	.	16ff\	-ny	.
8F\L 8A	[4f/ [>4a [4dd	.	[4dd\	żal	.
8AA\J	.	.	.	.	.
=30	=30	=30	=30	=30	=30
8.DD/L	4.f/] 4.a] 4.dd]	.	4dd\]	.	.
16AA/Jk	.	.	.	.	.
8F\	.	.	8r	.	.
8r	8B-/ 8b-	.	8b-\	gdy	.
=31	=31	=31	=31	=31	=31
*	*^	*	*	*	*
2AAA/ 2AA	2a/	8.A\L 8.c#X 8.g	.	2a/	mgły	.
.	.	16A\Jk 16c# 16g	.	.	.	.
.	.	8A\L 8c# 8g	.	.	.	.
.	.	8A\J 8c# 8g	.	.	.	.
*	*v	*v	*	*	*	*
=32	=32	=32	=32	=32	=32
!	!LO:TUP:a:problem:klamra łukowa	!	!	!	!
4EEn/ 4En	12A/L 12c#X 12a	.	12a/	na	.
.	12A/ 12c# 12a	.	12a/	fa-	.
.	12A/J 12c# 12a	.	12a/	-lach	.
4AAA/ 4AA	8Bn/L 8c# 8g	.	8.g/	się	.
.	8G/J 8c# 8en	.	.	.	.
.	.	.	16en/	po-	.
=33	=33	=33	=33	=33	=33
8.DD/L	4A/ 4d 4f#X	.	4f#X/	-ło-	.
16AA/Jk	.	.	.	.	.
8F#X\L	(4Bn/ [4d [4f# [4a	.	[4a/	-żą,	.
8AA\J	.	.	.	.	.
!!LO:PB:g=original	!	!	!	!	!
=34	=34	=34	=34	=34	=34
!	!	!	!LO:TX:t=P:problem: brak ligatury w t. 33, w t. 34 jest	!	!
(8.DD/L	4.B-/) 4.d] 4.f#] 4.a]	.	4a/]	.	.
16AA/Jk	.	.	.	.	.
8F#X\)	.	.	8r	.	.
8r	8f#X/	.	8f#X/	gdy	.
=35	=35	=35	=35	=35	=35
(8.FFn/L	[2An/ [>2e-X [2fn	.	[2fn/	wiatr	.
16C/Jk	.	.	.	.	.
8A\L	.	.	.	.	.
8C\J)	.	.	.	.	.
=36	=36	=36	=36	=36	=36
4FF/	(>16A/LL] 16e-] 16f]	.	16f/]	.	.
.	16B-/ 16e- 16g	.	16g/	o-	.
.	16A/ 16e- 16f	.	16f/	-bu-	.
.	16B-/JJ 16e- 16g	.	16g/	-dzi	.
4FF/ 4F	8A/L 8e- 8f	.	8f/	cię	.
.	8e-/J) 8a 8dd	.	8dd\	zuch-	.
=37	=37	=37	=37	=37	=37
(8.BBB-/L	8d/ 8f 8cc	.	8cc\	-wa-	.
.	[4.d/ [4.f [4.b-	.	[4.b-\	-ły	.
16FF/Jk	.	.	.	.	.
8D\L	.	.	.	.	.
8FF\J)	.	.	.	.	.
=38	=38	=38	=38	=38	=38
(8.BBB-/L	4.d/] 4.f] 4.b-]	<	4b-\]	.	.
16FF/Jk	.	.	.	.	.
8D\)	.	.	8r	.	.
8r	8d/ 8f 8b-	[[	8b-\	tyś	.
!!LO:LB:g=original	!	!	!	!	!
=39	=39	=39	=39	=39	=39
8.AAA-X/L 8.AA-X	[2c/ [>2g-X [2a-X	<	[2a-X/	jest	.
16E-X/Jk	.	.	.	.	.
8G-X\L 8A 8c	.	.	.	.	.
8EE-X\J	.	.	.	.	.
=40	=40	=40	=40	=40	=40
4AAA-X/ 4AA-X	(>16c/LL] 16g-] 16a-]	.	16a-/]	.	.
.	16d-X/ 16g-X 16b-	.	16b-\	w tym	.
.	16c/ 16g- 16a-X	.	16a-X/	gnie-	.
.	16d-/JJ 16g- 16b-	[[	16b-\	-wie	.
4AA-X\ 4A-X	8c/L 8g- 8a-	.	8a-/	roz-	.
.	8g-/J) 8cc 8ff	.	8ff\	-sza-	.
=41	=41	=41	=41	=41	=41
*	*^	*	*	*	*
8.DD-X/L	8ee-/	2f\ 2a-X	.	8ee-\	-la-	.
.	4dd-X/	.	.	4dd-X\	-łe,	.
16AA-X/Jk	.	.	.	.	.	.
8F\	.	.	.	.	.	.
8r	8ee-/	.	.	8ee-\	wspa-	.
=42	=42	=42	=42	=42	=42	=42
8.FF/L	8dd-X/	2f\ 2an	.	8dd-X\	-nia-	.
!	!LO:N:vis=4.	!	!	!	!	!
.	4cc/	.	.	4.cc\	-łe.	.
16C/Jk	.	.	.	.	.	.
8An\L	.	.	.	.	.	.
*	*cue	*	*	*	*	*
!	!LO:N:vis=4	!	!	!	!	!
8FF\J	8ff/ 8fff	.	.	.	.	.
*	*Xcue	*	*	*	*	*
*	*v	*v	*	*	*	*
=43	=43	=43	=43	=43	=43
8.BBB-/L 8.BB-	4dn/ 4f	.	4f/	Mo-	.
16F/Jk	.	.	.	.	.
8B-\L 8dn	[4ddn\ [4ff	.	[4ff\	-rze,	.
8FF\J	.	.	.	.	.
!!LO:LB:g=original	!	!	!	!	!
=44	=44	=44	=44	=44	=44
8.BBB-/L 8.BB-	16dd\LL] 16ff]	.	16ff\]	.	.
.	16dd\ 16ff	.	16ff\	oj-	.
.	16ee-\ 16gg	.	16gg\	-czy-	.
16F/Jk	16dd\JJ 16ff	.	16ff\	-zną	.
8B-\L 8d	16ee-\LL 16gg	.	16gg\	two-	.
.	16dd\ 16ff	.	16ff\	-ją	.
8FF\J	16cc\ 16ee-	.	16ee-\	niez-	.
.	16b-\JJ 16dd	.	16dd\	-mie-	.
=45	=45	=45	=45	=45	=45
8.BBB-/L 8.BB-	8.dd\L 8.ff	.	8.ff\	-rzo-	.
16F/Jk	16dd\Jk 16ff	.	16ff\	-na	.
8B-\L	[4b-\ [4dd	.	[4dd\	dal	.
8FF\J	.	.	.	.	.
=46	=46	=46	=46	=46	=46
*	*^	*	*	*	*
2BBB-/ 2BB-	8.dd/L]	8.b-\L]	.	2dd\]	.	.
.	16dd/Jk	16b-\Jk	.	.	.	.
.	4dd/	8a\L	.	.	.	.
.	.	8a-X\J	.	.	.	.
=47	=47	=47	=47	=47	=47	=47
!	!LO:TUP:a:problem:klamra łukowa	!	!	!	!	!
4EE-:\ 4BB-: 4G:	12dd/L	4g\	.	12dd\	A	.
.	12cc/	.	.	12cc\	two-	.
.	12b-/J	.	.	12b-\	-ją	.
4EE-:\ 4BB-: 4G-X:	4dd/	8g-X\L	.	8g-X/	pie-	.
.	.	8g-\J	.	8g-/	-śnią	.
!!LO:LB:g=original	!	!	!	!	!	!
=48	=48	=48	=48	=48	=48	=48
!	!	!LO:TUP:b:problem:klamra łukowa	!	!	!	!
4FF/ 4F	4ee-/	12f\L	.	12f/	ci-	.
.	.	12gn\	.	12gn/	-cha	.
.	.	12a\J	.	12a/	me-	.
4FFF/ 4FF	8g/L 8a 8ee-	4ryy	.	8ee-\	-lo-	.
.	8f/J 8a 8dd	.	.	8dd\	-dia	.
*	*v	*v	*	*	*	*
=49	=49	=49	=49	=49	=49
*>A1	*>A1	*>A1	*>A1	*>A1	*>A1
8.BBB-/L	[2d/ [>2f [2b-	.	[2b-\	fal.	.
16FF/Jk	.	.	.	.	.
8D\L	.	.	.	.	.
8FF\J	.	.	.	.	.
=50	=50	=50	=50	=50	=50
8.BBB-/L	4d/] 4f] 4b-]	.	4b-\]	.	.
16FF/Jk	.	.	.	.	.
8D-X\L	4r	.	4r	.	.
8FF\J	.	.	.	.	.
=51:|!	=51:|!	=51:|!	=51:|!	=51:|!	=51:|!
*>A2	*>A2	*>A2	*>A2	*>A2	*>A2
8.BBB-/L	[2d/ [>2f [2b-	.	[2b-\	fal.	.
16FF/Jk	.	.	.	.	.
8D\L	.	.	.	.	.
8FF\J	.	.	.	.	.
=52	=52	=52	=52	=52	=52
4BBB-/	4d/] 4f] 4b-]	.	4b-\]	.	.
4BBB-/ 4BB-	4b-\ 4dd 4ff 4bb-	sfz	4r	.	.
==	==	==	==	==	==
*-	*-	*-	*-	*-	*-
!!!system-decoration: s1{(s2,s3)}
!!!RDF**kern: > = above
!!!RDF**kern: < = below
!!!ENC: Berenika Jozajtis
!!!END: 2023-08-17
!!!ENC: Jan Barakat
!!!END: 2023-09-23
